X:1
T:Title
%%score [ ( 1 2 ) ( 3 4 ) ] { ( 5 6 ) | ( 7 8 ) }
L:1/8
Q:1/4=120
M:4/4
K:F
V:1 treble nm="Midi_74"
V:2 treble 
V:3 bass nm="Midi_74"
V:4 bass 
V:5 treble nm="Org."
V:6 treble 
V:7 bass 
V:8 bass 
V:1
 A8 | A4 c4 | F8 || F8 | G4 B4 |{B} A4 (G2 F2) |{F} E8 || G8 | B4 A4 | G8 || B8 | d4 c4 | %12
 B4"^John Camidge\n(1790-1859)"{A} G4 | F8 |] %14
V:2
 C8 | C4 C4 | D8 || C8 | F4 E4 | F4 D4 | C8 || E8 | C4 C4 | E8 || E8 | E4 F4 | D4 (F2 E2) | F8 |] %14
V:3
 A,8 | A,4 G,4 | F,8 || F,8 | D,4 G,4 | F,4 G,4 | G,8 || G,8 | G,4 A,4 | C8 || C8 | G,4 A,4 | %12
 F,4 B,4 | A,8 |] %14
V:4
 F,8 | F,4 E,4 | (D,6 C,B,,) || A,,8 | B,,4 C,4 | D,4 =B,,4 | C,8 || C,8 |{C,} E,4 F,4 | %9
 (C,6 B,,A,,) || G,,8 | B,,4 A,,4 | B,,4 C,4 | F,8 |] %14
V:5
 A8 | A4 c4 | F8 || F8 | G4 B4 | B2 A2 G2 F2 |{F} E8 || G8 | B4 A4 | G8 || B8 | d4 [Ac]4 | %12
 B4{A} [CG]4 | [CF]8 |] %14
V:6
 [CF]8 | [CF]4 [CG]4 | D8 || C8 | D4 E4 | F4 D4 | C8 || [CE]8 | [CG]4 [CF]4 | [CE]8 || [CEG]8 | %11
 [EG]4 F4 | [DF]4 F2 E2 | F8 |] %14
V:7
 x8 | x8 | F,8 || x8 | x8 | x8 | x8 || x8 | x8 | G,8 || x8 | x8 | x8 | x8 |] %14
V:8
 [F,,F,]8 | [F,A,]4 [E,G,]4 | D,6 C,B,, || [A,,F,]8 | [B,,B,]4 [C,G,]4 | [D,F,]4 [=B,,G,]4 | %6
 [C,G,]8 || [C,G,]8 | [C,E,]4 [C,F,]4 | C,6 B,,A,, || [G,,G,]8 | [B,,B,]4 [A,,A,]4 | %12
 [B,,B,]4 [C,B,]4 | [F,A,]8 |] %14

